styles/3/Numix/64/places/custom-user-home.svg

<?xml version="1.0" encoding="UTF-8" standalone="no"?>
<!-- Created with Inkscape (http://www.inkscape.org/) -->

<svg
   xmlns:dc="http://purl.org/dc/elements/1.1/"
   xmlns:cc="http://creativecommons.org/ns#"
   xmlns:rdf="http://www.w3.org/1999/02/22-rdf-syntax-ns#"
   xmlns:svg="http://www.w3.org/2000/svg"
   xmlns="http://www.w3.org/2000/svg"
   xmlns:sodipodi="http://sodipodi.sourceforge.net/DTD/sodipodi-0.dtd"
   xmlns:inkscape="http://www.inkscape.org/namespaces/inkscape"
   width="64"
   height="64"
   id="svg2"
   version="1.1"
   inkscape:version="0.91 r"
   sodipodi:docname="custom-user-home.svg"
   inkscape:export-filename="/media/Data/Main/Visuals/Icons/Numix/Desktop/repos/numix-wiki/Gjorgi/Numix-folders/48/New/folder-144.png"
   inkscape:export-xdpi="270"
   inkscape:export-ydpi="270">
  <defs
     id="defs4" />
  <sodipodi:namedview
     id="base"
     pagecolor="#ffffff"
     bordercolor="#666666"
     borderopacity="1.0"
     inkscape:pageopacity="0.0"
     inkscape:pageshadow="2"
     inkscape:zoom="5.6497832"
     inkscape:cx="-13.345786"
     inkscape:cy="23.731158"
     inkscape:document-units="px"
     inkscape:current-layer="layer1"
     showgrid="true"
     inkscape:window-width="1280"
     inkscape:window-height="998"
     inkscape:window-x="0"
     inkscape:window-y="0"
     inkscape:window-maximized="1"
     showguides="true"
     inkscape:guide-bbox="true">
    <inkscape:grid
       type="xygrid"
       id="grid2985"
       empspacing="5"
       visible="true"
       enabled="true"
       snapvisiblegridlinesonly="true" />
  </sodipodi:namedview>
  <metadata
     id="metadata7">
    <rdf:RDF>
      <cc:Work
         rdf:about="">
        <dc:format>image/svg+xml</dc:format>
        <dc:type
           rdf:resource="http://purl.org/dc/dcmitype/StillImage" />
        <dc:title />
      </cc:Work>
    </rdf:RDF>
  </metadata>
  <g
     inkscape:label="Layer 1"
     inkscape:groupmode="layer"
     id="layer1"
     transform="translate(0,-988.3622)">
    <rect
       style="fill:replacecolour2;fill-opacity:1;stroke:none"
       id="rect3757"
       width="52"
       height="20"
       x="6"
       y="1000.3622" />
    <path
       style="fill:replacecolour2;fill-opacity:1;stroke:none"
       d="m 12,1000.3622 c 0,-2 0,-4 2.909091,-4 l 10.181819,0 c 2.90909,0 2.90909,2 2.90909,4 l 0,2 -16,0 z"
       id="path3759"
       inkscape:connector-curvature="0"
       sodipodi:nodetypes="ccccccc" />
    <path
       style="fill:#95989f;fill-opacity:1;stroke:none"
       d="m 10,1004.3622 44,0 0,9.9354 -44,0 z"
       id="path3765"
       inkscape:connector-curvature="0" />
    <rect
       y="1002.3622"
       x="14"
       height="25.999954"
       width="38"
       id="rect3763-2"
       style="fill:#d8d8da;fill-opacity:1;stroke:none" />
    <rect
       style="fill:#f9f9f9;fill-opacity:1;stroke:none"
       id="rect3761"
       width="38"
       height="25.999954"
       x="12"
       y="1006.3622" />
    <path
       style="fill:replacecolour1;fill-opacity:1;stroke:none"
       d="m 2,1008.3622 60,0 -4.285714,36 -51.428572,0 z"
       id="path2987"
       inkscape:connector-curvature="0"
       sodipodi:nodetypes="ccccc" />
    <path
       style="fill:replacecolour3;fill-opacity:1;opacity:1.0"
       d="M 32 24.5 C 31.5 24.5 31 25 30 26 L 22 34 C 17.59322 38 16 38 22 38 L 22 48 C 22 50.216 23.784 52 26 52 L 29 52 L 29 42 L 35 42 L 35 52 L 38 52 C 40.216 52 42 50.216 42 48 L 42 38 C 48 38 46.576272 38 42 34 L 42 28 C 42 26.892 42 26 40 26 C 38 26 38 26.892 38 28 L 38 30 L 34 26 C 33 25 32.5 24.5 32 24.5 z "
       transform="translate(0,988.3622)"
       id="rect2989" />
  </g>
</svg>

<!-- Created with Inkscape (http://www.inkscape.org/) -->
<svg xmlns="http://www.w3.org/2000/svg" viewBox="0 0 64 64">
 <g transform="translate(0,-988.3622)">
  <rect width="52" height="20" x="6" y="1000.36" style="fill:replacecolour2;fill-opacity:1;stroke:none"/>
  <path d="m 12 1000.36 c 0 -2 0 -4 2.909 -4 l 10.182 0 c 2.909 0 2.909 2 2.909 4 l 0 2 -16 0 z" style="fill:replacecolour2;fill-opacity:1;stroke:none"/>
  <path d="m 10 1004.36 44 0 0 9.935 -44 0 z" style="fill:#95989f;fill-opacity:1;stroke:none"/>
  <rect y="1002.36" x="14" height="26" width="38" style="fill:#d8d8da;fill-opacity:1;stroke:none"/>
  <rect width="38" height="26" x="12" y="1006.36" style="fill:#f9f9f9;fill-opacity:1;stroke:none"/>
  <path d="m 2 1008.36 60 0 -4.286 36 -51.43 0 z" style="fill:replacecolour1;fill-opacity:1;stroke:none"/>
  <path d="m 32 24.5 c -0.5 0 -1 0.5 -2 1.5 l -8 8 c -4.407 4 -6 4 0 4 l 0 10 c 0 2.216 1.784 4 4 4 l 3 0 l 0 -10 l 6 0 l 0 10 l 3 0 c 2.216 0 4 -1.784 4 -4 l 0 -10 c 6 0 4.576 0 0 -4 l 0 -6 c 0 -1.108 0 -2 -2 -2 c -2 0 -2 0.892 -2 2 l 0 2 l -4 -4 c -1 -1 -1.5 -1.5 -2 -1.5 z" transform="translate(0,988.3622)" style="fill:replacecolour3;opacity:1;fill-opacity:1"/>
 </g>
</svg>
